X: 322
T: Lady Hamilton Dalyrumple's Strathspey
R: strathspey
M: C
L: 1/8
Z: 2012 John Chambers <jc:trillian.mit.edu>
B: J. Anderson "Budget of Strathspeys, Reels and Country Dances" (Early 1800s) p.32 #2
F: http://imslp.org/wiki/Anderson%27s_Budget_of_Strathspeys,_Reels_and_Country_Dances_(Various)
K: Am
g |\
c<AA>G (EA)(A>c) | BGdG eGBd | c<AA>G EAA>B | Tc>Bcd e>aa>b |
c'>a b>^g a>e =g>d | (f/e/).d/.c/ gc B>GB>d | c>AA>G E>AA>B | (c/B/).c/.d/ (e/d/).c/.B/ (cAA) |]
c |\
(Aa)Ta2 eaca | G<ge>g d<gBG | A>aag e^gac' | ((3bc'b) ((3ab^g) a>ga>b |
c'>ab>e (ag/)f/ gc | fdeA ^G>eE>d | c<AA>G (E>A)(A>B) | (c/B/).c/.d/ (e/d/).c/.B/ cAA |]

%%sep 2 1 500
%%sep 1 1 500

